icons/pencil-ai-16.svg

<svg width="16" height="16" viewBox="0 0 16 16" fill="none" xmlns="http://www.w3.org/2000/svg">
<g clip-path="url(#clip0_4_85)">
<path fill-rule="evenodd" clip-rule="evenodd" d="M11.0127 1.42693C11.6961 0.743512 12.8039 0.743514 13.4873 1.42693L14.5732 2.51287C15.2565 3.19629 15.2566 4.30412 14.5732 4.98748L5.96387 13.5969C5.75362 13.8071 5.49293 13.9605 5.20704 14.0422L1.95606 14.9709C1.69421 15.0458 1.41233 14.973 1.21973 14.7804C1.02713 14.5878 0.954484 14.306 1.0293 14.0441L1.95801 10.7931C2.03972 10.5073 2.19303 10.2466 2.40333 10.0363L11.0127 1.42693ZM3.46387 11.0969C3.43385 11.1268 3.41208 11.1644 3.4004 11.2053L2.8418 13.1584L4.79493 12.5998C4.83571 12.5882 4.87332 12.5664 4.90333 12.5363L11.1895 6.25017L9.75 4.81072L3.46387 11.0969ZM12.4268 2.48748C12.3291 2.38985 12.1708 2.38985 12.0732 2.48748L10.8106 3.75017L12.25 5.18963L13.5127 3.92693C13.6103 3.82935 13.6102 3.67106 13.5127 3.57342L12.4268 2.48748Z" fill="black"/>
<path d="M12.2685 9.16306C12.2859 9.11526 12.3176 9.07398 12.3593 9.04481C12.401 9.01565 12.4506 9 12.5015 9C12.5524 9 12.602 9.01565 12.6437 9.04481C12.6854 9.07398 12.7171 9.11526 12.7345 9.16306L12.9725 9.81106C13.1586 10.32 13.4535 10.7821 13.8366 11.1654C14.2196 11.5486 14.6817 11.8437 15.1905 12.0301L15.8395 12.2681C15.8872 12.2857 15.9284 12.3176 15.9574 12.3593C15.9865 12.4011 16.002 12.4507 16.002 12.5016C16.002 12.5524 15.9865 12.6021 15.9574 12.6438C15.9284 12.6855 15.8872 12.7174 15.8395 12.7351L15.1905 12.9731C14.6818 13.1592 14.2197 13.4541 13.8367 13.8372C13.4536 14.2203 13.1587 14.6823 12.9725 15.1911L12.7345 15.8401C12.7171 15.8879 12.6854 15.9291 12.6437 15.9583C12.602 15.9875 12.5524 16.0031 12.5015 16.0031C12.4506 16.0031 12.401 15.9875 12.3593 15.9583C12.3176 15.9291 12.2859 15.8879 12.2685 15.8401L12.0295 15.1911C11.8433 14.6823 11.5484 14.2203 11.1654 13.8372C10.7823 13.4541 10.3203 13.1592 9.81152 12.9731L9.16252 12.7351C9.11483 12.7174 9.07368 12.6855 9.04463 12.6438C9.01558 12.6021 9 12.5524 9 12.5016C9 12.4507 9.01558 12.4011 9.04463 12.3593C9.07368 12.3176 9.11483 12.2857 9.16252 12.2681L9.81152 12.0301C10.3203 11.8437 10.7824 11.5486 11.1655 11.1654C11.5485 10.7821 11.8434 10.32 12.0295 9.81106L12.2685 9.16306Z" fill="black"/>
</g>
<defs>
<clipPath id="clip0_4_85">
<rect width="16" height="16" fill="white"/>
</clipPath>
</defs>
</svg>

<svg xmlns="http://www.w3.org/2000/svg" width="16" height="16" viewBox="0 0 16 16"><path d="M11.013 1.427a1.75 1.75 0 0 1 2.474 0l1.086 1.086a1.748 1.748 0 0 1 0 2.474l-8.609 8.61c-.21.21-.471.363-.757.445l-3.251.929a.748.748 0 0 1-.736-.191.748.748 0 0 1-.191-.736l.929-3.251a1.76 1.76 0 0 1 .445-.757Zm-7.549 9.67a.253.253 0 0 0-.064.108l-.558 1.953 1.953-.558a.253.253 0 0 0 .108-.064l6.286-6.286L9.75 4.811Zm8.963-8.61a.252.252 0 0 0-.354 0L10.811 3.75l1.439 1.44 1.263-1.263a.252.252 0 0 0 0-.354Zm-.158 6.676A.246.246 0 0 1 12.502 9a.246.246 0 0 1 .232.163l.238.648a3.724 3.724 0 0 0 2.219 2.219l.649.238a.248.248 0 0 1 .16.202v.063a.248.248 0 0 1-.16.202l-.649.238a3.721 3.721 0 0 0-2.219 2.218l-.238.649a.246.246 0 0 1-.193.16h-.079a.245.245 0 0 1-.193-.16l-.239-.649a3.737 3.737 0 0 0-2.218-2.218l-.649-.238a.248.248 0 0 1-.118-.376.254.254 0 0 1 .118-.091l.649-.238a3.724 3.724 0 0 0 2.218-2.219Z"/></svg>
